src/assets/filled/UserEdit.svg

<svg width="24" height="24" viewBox="0 0 24 24"  xmlns="http://www.w3.org/2000/svg">
<path d="M12 2C9.24 2 7 4.24 7 7C7 9.76 9.24 12 12 12C14.76 12 17 9.76 17 7C17 4.24 14.76 2 12 2ZM14.17 6.51L11.47 9.21C11.37 9.31 11.16 9.41 11.02 9.44L9.99 9.58C9.61 9.63 9.35 9.37 9.41 9L9.56 7.97C9.58 7.83 9.68 7.62 9.79 7.52L12.49 4.82C12.95 4.36 13.5 4.14 14.18 4.82C14.85 5.51 14.63 6.05 14.17 6.51Z" />
<path d="M11.9999 14C6.98991 14 2.90991 17.36 2.90991 21.5C2.90991 21.78 3.12991 22 3.40991 22H20.5899C20.8699 22 21.0899 21.78 21.0899 21.5C21.0899 17.36 17.0099 14 11.9999 14Z" />
</svg>

<?xml version="1.0" encoding="UTF-8"?>
<svg width="24" height="24" viewBox="0 0 24 24" xmlns="http://www.w3.org/2000/svg">
 <path d="m12 2c-2.76 0-5 2.24-5 5s2.24 5 5 5 5-2.24 5-5-2.24-5-5-5zm2.17 4.51-2.7 2.7c-0.1 0.1-0.31 0.2-0.45 0.23l-1.03 0.14c-0.38 0.05-0.64-0.21-0.58-0.58l0.15-1.03c0.02-0.14 0.12-0.35 0.23-0.45l2.7-2.7c0.46-0.46 1.01-0.68 1.69 0 0.67 0.69 0.45 1.23-0.01 1.69z"/>
 <path d="m12 14c-5.01 0-9.09 3.36-9.09 7.5 0 0.28 0.22 0.5 0.5 0.5h17.18c0.28 0 0.5-0.22 0.5-0.5 0-4.14-4.08-7.5-9.09-7.5z"/>
</svg>
